public/assets/img/svg/embed/presentation.svg

<?xml version="1.0" encoding="utf-8"?>
<!-- Generator: Adobe Illustrator 17.0.0, SVG Export Plug-In . SVG Version: 6.00 Build 0)  -->
<!DOCTYPE svg PUBLIC "-//W3C//DTD SVG 1.1//EN" "http://www.w3.org/Graphics/SVG/1.1/DTD/svg11.dtd">
<svg version="1.1" id="Layer_1" xmlns:sketch="http://www.bohemiancoding.com/sketch/ns"
	 xmlns="http://www.w3.org/2000/svg" xmlns:xlink="http://www.w3.org/1999/xlink" x="0px" y="0px" width="48px" height="48px"
	 viewBox="-2.5 -5 48 48" enable-background="new -2.5 -5 48 48" xml:space="preserve">
<title>Fill 169</title>
<desc>Created with Sketch.</desc>
<g id="UI" sketch:type="MSPage">
	<g id="Toolbox-Expanded" transform="translate(-1026.000000, -209.000000)" sketch:type="MSArtboardGroup">
		<g id="Share-_x2B_-Fill-182-_x2B_-Fill-169" transform="translate(991.000000, 209.000000)" sketch:type="MSLayerGroup">
			<g id="Share-_x2B_-Fill-182" sketch:type="MSShapeGroup">
				<g id="Presentation-_x2B_-Fill-169">
					<path id="Fill-169" d="M50.773,28.882l-7.605,7.529c-0.294,0.291-0.296,0.766-0.005,1.06c0.147,0.149,0.34,0.223,0.533,0.223
						c0.191,0,0.382-0.072,0.528-0.217l7.604-7.528c0.295-0.292,0.297-0.767,0.005-1.062C51.541,28.593,51.067,28.592,50.773,28.882
						L50.773,28.882z M61.695,28.882c-0.294-0.29-0.769-0.289-1.06,0.005c-0.292,0.295-0.29,0.77,0.005,1.061l7.6,7.528
						c0.147,0.146,0.337,0.218,0.528,0.218c0.193,0,0.386-0.074,0.533-0.223c0.291-0.294,0.289-0.768-0.005-1.06L61.695,28.882
						L61.695,28.882z M45.314,18.647c0.192,0,0.384-0.073,0.53-0.22l7.012-7.012l5.215,5.216c0.141,0.14,0.331,0.219,0.531,0.219
						c0.198,0,0.389-0.079,0.53-0.219l8.549-8.549c0.293-0.293,0.293-0.768,0-1.061c-0.293-0.293-0.767-0.293-1.06,0l-8.019,8.019
						l-5.215-5.216c-0.141-0.141-0.332-0.22-0.531-0.22c-0.198,0-0.389,0.079-0.53,0.22l-7.542,7.543
						c-0.293,0.293-0.293,0.767,0,1.06C44.93,18.574,45.122,18.647,45.314,18.647L45.314,18.647z M76.713,25.749h-3.328V1.5h3.328
						c0.414,0,0.75-0.336,0.75-0.75S77.127,0,76.713,0H35.75C35.336,0,35,0.336,35,0.75s0.336,0.75,0.75,0.75h3.33v24.249h-3.33
						c-0.414,0-0.75,0.336-0.75,0.75c0,0.414,0.336,0.75,0.75,0.75h40.963c0.414,0,0.75-0.336,0.75-0.75
						C77.463,26.085,77.127,25.749,76.713,25.749L76.713,25.749z M40.58,1.5h31.305v24.249H40.58V1.5z"/>
				</g>
			</g>
		</g>
	</g>
</g>
</svg>

<?xml version="1.0" encoding="UTF-8" standalone="no"?>
<svg width="43px" height="38px" viewBox="0 0 43 38" version="1.1" xmlns="http://www.w3.org/2000/svg" xmlns:xlink="http://www.w3.org/1999/xlink" xmlns:sketch="http://www.bohemiancoding.com/sketch/ns">
    <!-- Generator: Sketch 3.2.2 (9983) - http://www.bohemiancoding.com/sketch -->
    <title>Fill 169</title>
    <desc>Created with Sketch.</desc>
    <defs></defs>
    <g id="UI" stroke="none" stroke-width="1" fill="none" fill-rule="evenodd" sketch:type="MSPage">
        <g id="Toolbox-Expanded" sketch:type="MSArtboardGroup" transform="translate(-1026.000000, -209.000000)" fill="#000000">
            <g id="Share-+-Fill-182-+-Fill-169" sketch:type="MSLayerGroup" transform="translate(991.000000, 209.000000)">
                <g id="Share-+-Fill-182" sketch:type="MSShapeGroup">
                    <g id="Presentation-+-Fill-169">
                        <path d="M50.773,28.882 L43.168,36.411 C42.874,36.702 42.872,37.177 43.163,37.471 C43.31,37.62 43.503,37.694 43.696,37.694 C43.887,37.694 44.078,37.622 44.224,37.477 L51.828,29.949 C52.123,29.657 52.125,29.182 51.833,28.887 C51.541,28.593 51.067,28.592 50.773,28.882 L50.773,28.882 Z M61.695,28.882 C61.401,28.592 60.926,28.593 60.635,28.887 C60.343,29.182 60.345,29.657 60.64,29.948 L68.24,37.476 C68.387,37.622 68.577,37.694 68.768,37.694 C68.961,37.694 69.154,37.62 69.301,37.471 C69.592,37.177 69.59,36.703 69.296,36.411 L61.695,28.882 L61.695,28.882 Z M45.314,18.647 C45.506,18.647 45.698,18.574 45.844,18.427 L52.856,11.415 L58.071,16.631 C58.212,16.771 58.402,16.85 58.602,16.85 C58.8,16.85 58.991,16.771 59.132,16.631 L67.681,8.082 C67.974,7.789 67.974,7.314 67.681,7.021 C67.388,6.728 66.914,6.728 66.621,7.021 L58.602,15.04 L53.387,9.824 C53.246,9.683 53.055,9.604 52.856,9.604 C52.658,9.604 52.467,9.683 52.326,9.824 L44.784,17.367 C44.491,17.66 44.491,18.134 44.784,18.427 C44.93,18.574 45.122,18.647 45.314,18.647 L45.314,18.647 Z M76.713,25.749 L73.385,25.749 L73.385,1.5 L76.713,1.5 C77.127,1.5 77.463,1.164 77.463,0.75 C77.463,0.336 77.127,0 76.713,0 L35.75,0 C35.336,0 35,0.336 35,0.75 C35,1.164 35.336,1.5 35.75,1.5 L39.08,1.5 L39.08,25.749 L35.75,25.749 C35.336,25.749 35,26.085 35,26.499 C35,26.913 35.336,27.249 35.75,27.249 L76.713,27.249 C77.127,27.249 77.463,26.913 77.463,26.499 C77.463,26.085 77.127,25.749 76.713,25.749 L76.713,25.749 Z M40.58,1.5 L71.885,1.5 L71.885,25.749 L40.58,25.749 L40.58,1.5 Z" id="Fill-169"></path>
                    </g>
                </g>
            </g>
        </g>
    </g>
</svg>
